!!!COM: Janáček, Leoš [Leo Eugen]
!!!OTL: Šumařovo dítě (The Fiddler’s Child), Ballad for Orchestra
**kern	**dynam	**kern	**kern	**kern	**kern	**kern	**kern	**kern	**kern	**kern	**kern	**kern	**kern	**kern
*grp:A	*grp:A	*grp:A	*grp:B	*grp:B	*grp:B	*grp:A	*grp:B	*grp:A	*grp:A	*grp:B	*grp:B	*grp:B	*grp:B	*grp:B
*part14	*part14	*part13	*part12	*part11	*part10	*part9	*part8	*part7	*part6	*part5	*part4	*part3	*part2	*part1
*staff14	*S	*staff13	*staff12	*staff11	*staff10	*staff9	*staff8	*staff7	*staff6	*staff5	*staff4	*staff3	*staff2	*staff1
*I"Contrabass	*	*I"Violoncello	*I"Viola	*I"Violin II	*I"Violin I	*I"Violin	*I"Timpani	*I"Trombone	*I"Horn in F	*I"Bassoon	*I"Bass Clarinet in Bb	*I"Clarinet in Bb	*I"Oboe	*I"Flute
*I'Cb.	*	*I'Vc.	*I'Vla.	*I'Vln. II	*I'Vln. I	*I'Vln.	*I'Timp.	*I'Tbn.	*I'Hn.	*I'Bsn.	*I'B. Cl.	*I'Cl.	*I'Ob.	*I'Fl.
*clefF4	*	*clefF4	*clefC3	*clefG2	*clefG2	*clefG2	*clefF4	*clefF4	*clefG2	*clefF4	*clefG2	*clefG2	*clefG2	*clefG2
*ITrd0c0	*	*	*	*	*	*	*	*	*ITrd4c7	*	*ITrd1c2	*ITrd1c2	*	*
*k[b-e-a-]	*	*k[b-e-a-]	*k[b-e-a-]	*k[b-e-a-]	*k[b-e-a-]	*k[b-e-a-]	*	*k[b-e-a-]	*	*k[b-e-a-]	*k[b-e-a-]	*k[b-e-a-]	*k[b-e-a-]	*k[b-e-a-]
*E-:	*	*E-:	*E-:	*E-:	*E-:	*E-:	*	*E-:	*	*E-:	*E-:	*E-:	*E-:	*E-:
*M3/8	*	*M3/8	*M3/8	*M3/8	*M3/8	*M3/8	*M3/8	*M3/8	*M3/8	*M3/8	*M3/8	*M3/8	*M3/8	*M3/8
=1	=1	=1	=1	=1	=1	=1	=1	=1	=1	=1	=1	=1	=1	=1
4.An 4.Bn 4.d#X	ff	4.e-	4.cc-Xt	4.ccc-Xt	4.ccc-Xt	4.ff	4.E-X	4.E- 4.A- 4.c	8e-X	[4.BB-- [4.C-X	[4.E-	[4.bbXt	[4.bbnt	[4.bbnt
.	.	.	.	.	.	.	.	.	8r	.	.	.	.	.
.	.	.	.	.	.	.	.	.	8r	.	.	.	.	.
=2	=2	=2	=2	=2	=2	=2	=2	=2	=2	=2	=2	=2	=2	=2
4.r	<	4.r	4.cc-X	4.ccc-X	4.ccc-X	4.r	4.E-X	4.r	4.r	4.BB--_ 4.C-_	4.E-_	4.bb_	4.bb_	4.bb_
=3	=3	=3	=3	=3	=3	=3	=3	=3	=3	=3	=3	=3	=3	=3
4.r	<	4.r	4.cc-X	4.ccc-X	4.ccc-X	4.r	4.E-X	4.r	4.r	4.BB--_ 4.C-_	4.E-_	4.bb_	4.bb_	4.bb_
=4||	=4||	=4||	=4||	=4||	=4||	=4||	=4||	=4||	=4||	=4||	=4||	=4||	=4||	=4||
*k[]	*	*k[]	*k[]	*k[]	*k[]	*k[]	*	*k[]	*	*k[]	*k[]	*k[]	*k[]	*k[]
*C:	*	*C:	*C:	*C:	*C:	*C:	*	*C:	*	*C:	*C:	*C:	*C:	*C:
4.r	<	4.r	4.b	4.b	4.bb	4.r	4.E-X	4.r	4.r	4.BB--_ 4.C-_	4.E-_	4.bb_	4.bb_	4.bb_
=5	=5	=5	=5	=5	=5	=5	=5	=5	=5	=5	=5	=5	=5	=5
4.r	f	4.r	64%3gLLL	64%3gLLL	64%3ggLLL	4.r	64%3BBnLLL	4.r	4.r	(4.BB--] 4.C-]	4.E-_	(16%3bbL_	4.bb_	(16%3bbL_
.	.	.	64%3a	64%3a	64%3aa	.	64%3BB	.	.	.	.	.	.	.
.	.	.	64%3b	64%3b	64%3bb	.	64%3BB	.	.	.	.	.	.	.
.	.	.	64%3cc#X	64%3cc#X	64%3ccc#X	.	64%3BB	.	.	.	.	.	.	.
.	.	.	64%3b	64%3b	64%3bb	.	64%3BB	.	.	.	.	64%3bbLL]	.	64%3bbLL]
.	.	.	64%3cc#	64%3cc#	64%3ccc#	.	64%3BB	.	.	.	.	64%3ccc#X	.	64%3ccc#X
.	.	.	64%3dd#X	64%3dd#X	64%3ddd#X	.	64%3BB	.	.	.	.	64%3ddd	.	64%3ddd#X
.	.	.	64%3eeJJJ	64%3eeJJJ	64%3eeeJJJ	.	64%3BBJJJ	.	.	.	.	64%3eeeXJJJ)	.	64%3eeeJJJ)
=6!|:	=6!|:	=6!|:	=6!|:	=6!|:	=6!|:	=6!|:	=6!|:	=6!|:	=6!|:	=6!|:	=6!|:	=6!|:	=6!|:	=6!|:
!!pagebreak:original
!LO:TX:t=pizz.	!	!	!	!	!	!	!	!	!	!	!	!	!	!
*	*	*	*	*	*	*	*	*	*	*^	*	*	*	*
4G	f	16%3r	4.r	4.r	4.r	4.r	4.r	4.r	4.r	4BB^^)	[4.GG^^	8E-^^]	8eee-^^	8bb^^]	8ddd#XL
.	.	.	.	.	.	.	.	.	.	.	.	8r	8r	8r	8bb
.	.	16%3BB 16%3D#X	.	.	.	.	.	.	.	.	.	.	.	.	.
8r	.	.	.	.	.	.	.	.	.	8r	.	8r	8r	8r	8ddd#J
=7	=7	=7	=7	=7	=7	=7	=7	=7	=7	=7	=7	=7	=7	=7	=7
4G	.	16%3r	4.r	4.r	4.r	4.r	4.r	4.r	4.r	4.r	4.GG^^_	4.r	4.r	4.r	8ccc#XL
.	.	.	.	.	.	.	.	.	.	.	.	.	.	.	8aa
.	.	16%3BB 16%3D#X	.	.	.	.	.	.	.	.	.	.	.	.	.
8r	.	.	.	.	.	.	.	.	.	.	.	.	.	.	8ccc#J
=8	=8	=8	=8	=8	=8	=8	=8	=8	=8	=8	=8	=8	=8	=8	=8
4G	.	16%3r	4.r	4.r	4.r	4.r	4.r	4.r	4.r	4.r	4.GG^^_	4.r	4.r	4.r	8bbL
.	.	.	.	.	.	.	.	.	.	.	.	.	.	.	8gg
.	.	16%3BB 16%3D#X	.	.	.	.	.	.	.	.	.	.	.	.	.
8r	.	.	.	.	.	.	.	.	.	.	.	.	.	.	[8bbJ
=9	=9	=9	=9	=9	=9	=9	=9	=9	=9	=9	=9	=9	=9	=9	=9
4G	ff	16%3r	4.r	64%3gLLL	64%3ggLLL	4.r	4.r	4.r	4.r	4.r	4.GG^^]	4.r	4.r	4.r	4.bb]
.	.	.	.	64%3a	64%3aa	.	.	.	.	.	.	.	.	.	.
.	.	.	.	64%3b	64%3bb	.	.	.	.	.	.	.	.	.	.
.	.	.	.	64%3cc#X	64%3ccc#X	.	.	.	.	.	.	.	.	.	.
.	.	16%3BB 16%3D#X	.	64%3b	64%3bb	.	.	.	.	.	.	.	.	.	.
.	.	.	.	64%3cc#	64%3ccc#	.	.	.	.	.	.	.	.	.	.
8r	.	.	.	.	.	.	.	.	.	.	.	.	.	.	.
.	.	.	.	64%3dd#X	64%3ddd#X	.	.	.	.	.	.	.	.	.	.
.	.	.	.	64%3eeJJJ	64%3eeeJJJ	.	.	.	.	.	.	.	.	.	.
*	*	*	*	*	*	*	*	*	*	*v	*v	*	*	*	*
=:|!	=:|!	=:|!	=:|!	=:|!	=:|!	=:|!	=:|!	=:|!	=:|!	=:|!	=:|!	=:|!	=:|!	=:|!
*-	*-	*-	*-	*-	*-	*-	*-	*-	*-	*-	*-	*-	*-	*-
!!!CDT: 1854/07/03-1928/08/12
!!!CBL: Hukvaldy, Moravia
!!!CDL: Moravaská Ostrava, Czech Republic
!!!CNT: Czech
!!!AGN: Orchestral; Programmatic
!!!MCN: Ostrcil, Otakar
!!!MDT: 1917/11/14
!!!MGN: Czech Philharmonic Orchestra
!!!MLC: Prague, Czechia
!!!MPD: 1917
!!!MPN:
!!!ODT: 1913
!!!PDT: 1914
!!!example: 130
!!!work: Jan-33
!!!excerpt-end-measure: 71
!!!excerpt-end-time: 1:36
!!!excerpt-start-measure: 63
!!!excerpt-start-time: 1:28
!!!system-decoration: [(s1,s2,s3,s4,s5)][(s6,s7)][(s8)][(s9,s10,s11,s12,s13,s14)]
!!!ONB: Converted from MusicXML on 2019/06/04 and edited by Craig Stuart Sapp
!!!EEV: 2019/10/08
